img/Crop.svg

<svg width="81" height="80" viewBox="0 0 81 80" fill="none" xmlns="http://www.w3.org/2000/svg">
<path d="M80.5 40C80.5 62.0914 62.5914 80 40.5 80C18.4086 80 0.5 62.0914 0.5 40C0.5 17.9086 18.4086 0 40.5 0C62.5914 0 80.5 17.9086 80.5 40Z" fill="#E8F7DA"/>
<path fill-rule="evenodd" clip-rule="evenodd" d="M41.1245 37.7546L41.0921 39.718L41.0914 39.7363L39.0926 39.6667C41.0914 39.7363 41.0914 39.7362 41.0914 39.7363L41.0635 40.546C41.0461 41.0549 41.0218 41.7713 40.9941 42.6015C40.9387 44.2622 40.8699 46.376 40.8162 48.193L36.8179 48.0748C36.8718 46.2503 36.9408 44.1305 36.9963 42.4681C37.0241 41.6366 37.0484 40.919 37.0659 40.4092L37.0932 39.6154L37.1251 37.6885L41.1245 37.7546Z" fill="#2C8F00"/>
<path d="M33.4503 32.2048C37.5265 33.1807 39.1248 37.7215 39.1248 37.7215L39.0926 39.6667C39.0926 39.6667 33.4249 40.1724 30.5353 38.2461C27.8716 36.4704 26.6988 31.4866 27.3245 31.4866C28.1272 31.4866 31.0538 31.631 33.4503 32.2048Z" fill="#ACEB7C"/>
<path fill-rule="evenodd" clip-rule="evenodd" d="M25.5746 30.4179C25.8888 29.9561 26.4878 29.4865 27.3245 29.4865C28.2179 29.4865 31.3138 29.6366 33.916 30.2597C36.598 30.9018 38.3784 32.6935 39.4368 34.1572C39.9748 34.9013 40.3596 35.605 40.6114 36.1251C40.7381 36.3866 40.8331 36.6059 40.8988 36.7661C40.9316 36.8462 40.9572 36.912 40.9759 36.9611L40.9987 37.0223L41.0063 37.0433L41.0091 37.0512L41.0103 37.0545C41.0105 37.0552 41.0113 37.0574 39.1248 37.7215L41.0113 37.0574L41.1304 37.3958L41.0626 41.4988L39.2703 41.6587L39.0926 39.6666C39.2703 41.6587 39.2708 41.6587 39.2703 41.6587L39.2663 41.6591L39.2602 41.6596L39.2418 41.6612L39.181 41.666C39.13 41.6699 39.0585 41.6751 38.9685 41.6807C38.7887 41.692 38.5342 41.7053 38.2219 41.7147C37.5998 41.7333 36.736 41.7368 35.7692 41.6746C33.9377 41.5568 31.3379 41.1848 29.4259 39.9102C27.572 38.6743 26.4233 36.509 25.8227 34.8998C25.5097 34.0614 25.2917 33.2311 25.2039 32.5478C25.1634 32.2321 25.131 31.8067 25.1993 31.3847C25.2312 31.187 25.3129 30.8026 25.5746 30.4179ZM36.9384 37.7215C36.6513 37.7154 36.3446 37.7033 36.0259 37.6828C34.3011 37.5719 32.6222 37.2336 31.6446 36.5819C30.8597 36.0587 30.1127 34.9017 29.6165 33.623C30.6651 33.7234 31.8949 33.8888 32.9846 34.1497C34.3788 34.4835 35.4357 35.4503 36.1954 36.501C36.5184 36.9476 36.7645 37.3786 36.9384 37.7215Z" fill="#359900"/>
<path d="M50.0112 32.7117C54.1092 29.6699 54.9963 24.0933 54.4049 24.0933C53.8134 24.0933 47.1067 23.5076 44.1389 25.4875C41.1711 27.4673 39.1248 30.0501 39.1248 34.4016C39.1248 34.4016 46.2389 35.5117 50.0112 32.7117Z" fill="#ACEB7C"/>
<path fill-rule="evenodd" clip-rule="evenodd" d="M47.3261 26.391C46.389 26.5895 45.6916 26.8558 45.2487 27.1512C43.9167 28.0398 42.9073 28.9878 42.2232 30.1018C41.7929 30.8024 41.4631 31.6144 41.2816 32.5918C41.8155 32.6174 42.4315 32.6289 43.089 32.6077C45.248 32.5382 47.4452 32.1256 48.8191 31.1058C50.4661 29.8833 51.5206 28.1004 52.092 26.5645C52.1635 26.3725 52.2257 26.1888 52.2794 26.0153C51.6987 26.0054 51.0218 26.0093 50.2581 26.0457C49.2611 26.0932 48.2409 26.1973 47.3261 26.391ZM39.1248 34.4016L38.8164 36.3777L37.1248 36.1137V34.4016C37.1248 31.8916 37.7211 29.7892 38.8146 28.0086C39.8956 26.2483 41.3931 24.9149 43.0289 23.8237C44.0699 23.1292 45.3238 22.7263 46.4974 22.4778C47.6933 22.2245 48.9432 22.1038 50.0678 22.0502C51.1983 21.9964 52.2409 22.0087 53.0318 22.0337C53.4283 22.0463 53.7639 22.0621 54.0144 22.0745C54.0563 22.0765 54.0947 22.0784 54.1302 22.0802C54.2036 22.0839 54.2643 22.0869 54.317 22.0894C54.3865 22.0926 54.4111 22.0932 54.4111 22.0933C54.4111 22.0933 54.4088 22.0933 54.4048 22.0933C55.3861 22.0933 55.9709 22.7249 56.2123 23.1265C56.4312 23.4908 56.5018 23.8471 56.5307 24.0351C56.5939 24.4459 56.572 24.8759 56.5316 25.2353C56.4462 25.9963 56.217 26.9486 55.841 27.9592C55.0922 29.972 53.6542 32.4983 51.2032 34.3176C48.8048 36.0979 45.5588 36.5302 43.2177 36.6056C41.9975 36.6449 40.9111 36.5894 40.1296 36.5244C39.7375 36.4918 39.4183 36.4565 39.1931 36.4288C39.0804 36.4149 38.991 36.4028 38.9274 36.3939L38.8516 36.383L38.8288 36.3796L38.8213 36.3784L38.8185 36.378C38.818 36.3779 38.8164 36.3777 39.1248 34.4016Z" fill="#46A314"/>
<path d="M29.2981 51.4135C26.5374 53.0164 26.6632 55.9149 26.6632 55.9149H51.1637C51.1637 55.9149 51.1447 53.0197 48.5843 51.3735C46.0239 49.7273 43.2943 51.5295 43.0196 51.4518C42.7449 51.3742 42.377 48.4869 38.817 48.1339C35.5104 48.1874 34.8695 51.3244 34.7014 51.4135C34.5334 51.5026 32.0586 49.8106 29.2981 51.4135Z" fill="#D9C2B5"/>
<path fill-rule="evenodd" clip-rule="evenodd" d="M38.8998 46.1322L39.0144 46.1436C41.4152 46.3816 42.8892 47.5267 43.7607 48.71C43.8357 48.8119 43.9055 48.9129 43.9703 49.0119C44.138 48.9631 44.316 48.9162 44.5026 48.8739C45.8431 48.57 47.7748 48.4752 49.666 49.6912C51.4194 50.8186 52.2939 52.3758 52.7222 53.6018C52.936 54.2137 53.045 54.7584 53.1013 55.1582C53.1296 55.3594 53.145 55.5274 53.1535 55.6535C53.1577 55.7166 53.1602 55.7696 53.1617 55.8112L53.1632 55.8652L53.1635 55.8857L53.1636 55.8943L53.1637 55.8981L53.1637 55.9C53.1637 55.9008 53.1637 55.9017 51.1637 55.9149C49.1638 55.928 49.1638 55.9288 49.1638 55.9297L49.1638 55.9313L49.1638 55.9344L49.1639 55.9398L49.164 55.9478C49.1641 55.9518 49.1642 55.9534 49.1642 55.9527C49.1641 55.9511 49.1637 55.9402 49.1624 55.921C49.1598 55.8823 49.1538 55.8113 49.1403 55.7153C49.1129 55.5209 49.0571 55.2389 48.9461 54.9212C48.7249 54.288 48.3096 53.5746 47.5027 53.0557C46.8334 52.6254 46.1201 52.6087 45.3871 52.7749C45.0184 52.8585 44.6832 52.9809 44.3805 53.1006C44.3498 53.1128 44.3133 53.1274 44.2736 53.1433C44.1601 53.1888 44.0208 53.2446 43.9179 53.2821C43.8443 53.3089 43.7136 53.3551 43.5642 53.3908C43.5624 53.3913 43.5599 53.3919 43.5567 53.3927C43.4815 53.4116 43.0155 53.529 42.4758 53.3764C41.7866 53.1817 41.4304 52.6938 41.3554 52.591L41.3521 52.5864C41.2313 52.4214 41.1515 52.2645 41.1154 52.192C41.0633 52.0872 40.9953 51.9328 40.9521 51.8348C40.9401 51.8076 40.9301 51.7848 40.9228 51.7685C40.8153 51.5288 40.7006 51.3003 40.54 51.0822C40.2783 50.7269 39.8127 50.2719 38.7382 50.1373C37.9126 50.1805 37.4866 50.5498 37.189 50.9513C37.0146 51.1865 36.8849 51.4405 36.7808 51.6769C36.7424 51.7641 36.7208 51.8167 36.6957 51.8777C36.6784 51.9198 36.6593 51.966 36.632 52.0305C36.6109 52.0802 36.5653 52.1872 36.5074 52.2968C36.4789 52.3507 36.4209 52.4566 36.334 52.5756L36.3332 52.5767C36.2772 52.6534 36.053 52.9605 35.6384 53.1804C35.1577 53.4353 34.7161 53.4219 34.568 53.4136C34.3779 53.4031 34.2272 53.3683 34.152 53.3492C33.9989 53.3104 33.8675 53.2598 33.8105 53.2377C33.7494 53.214 33.6301 53.1646 33.5363 53.1258C33.4883 53.1059 33.4471 53.0888 33.4235 53.0793C33.1745 52.9784 32.8836 52.8724 32.552 52.8012C31.9104 52.6634 31.1407 52.6562 30.3023 53.143C29.4286 53.6503 29.034 54.3337 28.8395 54.9075C28.7393 55.203 28.6947 55.4661 28.6756 55.647C28.6662 55.7361 28.6634 55.801 28.6626 55.8346C28.6622 55.8512 28.6624 55.8597 28.6623 55.859L28.6622 55.8509L28.6619 55.8414L28.6616 55.8353L28.6615 55.8318L28.6614 55.83C28.6614 55.8291 28.6613 55.8281 26.6632 55.9149C24.6651 56.0016 24.6651 56.0006 24.665 55.9996L24.6649 55.9976L24.6648 55.9934L24.6644 55.9841L24.6637 55.962C24.6633 55.9459 24.6629 55.9267 24.6626 55.9048C24.6621 55.8609 24.6622 55.8055 24.6638 55.7398C24.6669 55.6086 24.6758 55.4346 24.6978 55.2269C24.7413 54.8141 24.8379 54.2525 25.0513 53.623C25.4841 52.3468 26.4069 50.7795 28.2938 49.6838C30.216 48.5678 32.064 48.6052 33.3919 48.8904C33.4993 48.9134 33.6034 48.9381 33.704 48.9639C33.7866 48.8346 33.8769 48.7024 33.9756 48.5693C34.854 47.3842 36.3772 46.173 38.7847 46.1341L38.8998 46.1322ZM42.5362 49.5282C42.5363 49.5281 42.5385 49.5273 42.5428 49.5259C42.5382 49.5275 42.5361 49.5282 42.5362 49.5282Z" fill="#66452E"/>
</svg>

<svg width="81" height="80" fill="none" xmlns="http://www.w3.org/2000/svg"><path d="M80.5 40c0 22.091-17.909 40-40 40S.5 62.091.5 40s17.909-40 40-40 40 17.909 40 40z" fill="#E8F7DA"/><path fill-rule="evenodd" clip-rule="evenodd" d="M41.124 37.755l-.032 1.963v.018l-2-.07 2 .07-.029.81a2468.283 2468.283 0 0 0-.247 7.647l-3.998-.118a1552.17 1552.17 0 0 1 .248-7.666l.027-.794.032-1.927 4 .067z" fill="#2C8F00"/><path d="M33.45 32.205c4.076.976 5.675 5.517 5.675 5.517l-.032 1.945s-5.668.505-8.558-1.42c-2.663-1.777-3.836-6.76-3.21-6.76.802 0 3.729.144 6.125.718z" fill="#ACEB7C"/><path fill-rule="evenodd" clip-rule="evenodd" d="M25.575 30.418a2.113 2.113 0 0 1 1.75-.931c.893 0 3.989.15 6.591.773 2.682.642 4.462 2.433 5.52 3.897a13.222 13.222 0 0 1 1.463 2.61c.033.08.058.145.077.194l.023.061.007.021.003.008.001.003c0 .001.001.003-1.885.667l1.886-.664.12.339-.068 4.103-1.793.16-.177-1.992.177 1.992h-.01l-.018.002-.061.005c-.051.004-.122.01-.212.015a26.405 26.405 0 0 1-3.2-.006c-1.831-.118-4.431-.49-6.343-1.765-1.854-1.236-3.003-3.401-3.603-5.01-.313-.839-.531-1.669-.619-2.352a4.126 4.126 0 0 1-.005-1.163c.032-.198.114-.582.376-.967zm11.363 7.303a21.295 21.295 0 0 1-.912-.038c-1.725-.111-3.404-.45-4.381-1.101-.785-.523-1.532-1.68-2.028-2.959 1.048.1 2.278.266 3.368.527 1.394.334 2.45 1.3 3.21 2.351.323.447.57.878.743 1.22z" fill="#359900"/><path d="M50.011 32.712c4.098-3.042 4.985-8.619 4.394-8.619-.592 0-7.298-.585-10.266 1.395s-5.014 4.562-5.014 8.914c0 0 7.114 1.11 10.886-1.69z" fill="#ACEB7C"/><path fill-rule="evenodd" clip-rule="evenodd" d="M47.326 26.391c-.937.199-1.634.465-2.077.76-1.332.889-2.342 1.837-3.026 2.95a7.19 7.19 0 0 0-.941 2.49c.534.026 1.15.038 1.807.017 2.159-.07 4.356-.482 5.73-1.502 1.647-1.223 2.702-3.006 3.273-4.542.072-.192.134-.375.187-.549-.58-.01-1.257-.006-2.02.03-.998.048-2.018.152-2.933.346zm-8.201 8.01l-.309 1.977-1.691-.264v-1.712c0-2.51.596-4.613 1.69-6.393 1.08-1.76 2.578-3.094 4.214-4.185 1.04-.695 2.295-1.098 3.468-1.346 1.196-.254 2.446-.374 3.57-.428a37.81 37.81 0 0 1 2.965-.016 54.384 54.384 0 0 1 1.285.055c.07.004.094.004.094.004h-.006c.981 0 1.566.632 1.807 1.034.22.364.29.72.319.908.063.41.041.84 0 1.2-.085.761-.314 1.714-.69 2.724-.749 2.013-2.187 4.54-4.638 6.359-2.398 1.78-5.644 2.212-7.985 2.288a27.185 27.185 0 0 1-4.025-.177 16.341 16.341 0 0 1-.266-.035l-.075-.011-.023-.003-.008-.002h-.002c-.001 0-.003 0 .306-1.976z" fill="#46A314"/><path d="M29.298 51.413c-2.76 1.603-2.635 4.502-2.635 4.502h24.5s-.018-2.895-2.579-4.541c-2.56-1.647-5.29.155-5.564.078-.275-.078-.643-2.965-4.203-3.318-3.307.053-3.947 3.19-4.115 3.28-.169.089-2.643-1.603-5.404 0z" fill="#D9C2B5"/><path fill-rule="evenodd" clip-rule="evenodd" d="M38.9 46.132l.114.012c2.401.238 3.875 1.383 4.747 2.566.075.102.145.203.21.302.167-.049.345-.096.532-.138 1.34-.304 3.272-.399 5.163.817 1.753 1.128 2.628 2.685 3.056 3.91a8.22 8.22 0 0 1 .38 1.557 6.904 6.904 0 0 1 .06.653l.001.054v.035s0 .002-2 .015-2 .014-2 .015v.01l.001.008a.04.04 0 0 0 0 .005l-.002-.032a4.23 4.23 0 0 0-.216-1c-.221-.633-.636-1.346-1.443-1.865-.67-.43-1.383-.447-2.116-.281a6.821 6.821 0 0 0-1.113.368c-.114.046-.253.102-.356.14a3.236 3.236 0 0 1-.354.108c-.002 0-.004 0-.007.002-.076.019-.541.136-1.081-.017-.69-.194-1.045-.682-1.12-.785l-.004-.005a2.71 2.71 0 0 1-.237-.394c-.052-.105-.12-.26-.163-.357l-.03-.066a3.623 3.623 0 0 0-.382-.687c-.262-.355-.727-.81-1.802-.945-.825.044-1.251.413-1.549.814-.174.236-.304.49-.408.726-.039.087-.06.14-.085.2l-.064.154c-.021.05-.067.156-.125.266-.028.054-.086.16-.173.279-.057.077-.281.385-.696.604a2.04 2.04 0 0 1-1.07.234 2.18 2.18 0 0 1-.416-.065 2.96 2.96 0 0 1-.342-.111l-.274-.112-.113-.047c-.248-.1-.54-.207-.871-.278-.642-.138-1.411-.145-2.25.342-.873.507-1.268 1.19-1.462 1.764a3.462 3.462 0 0 0-.177.928v.024-.008l-.001-.01V55.83s0-.002-1.999.085c-1.998.087-1.998.086-1.998.085v-.016l-.001-.022a5.129 5.129 0 0 1 .034-.735 7.47 7.47 0 0 1 .353-1.604 7.157 7.157 0 0 1 3.243-3.94c1.922-1.115 3.77-1.078 5.098-.793.107.023.211.048.312.074.083-.13.173-.262.272-.395.878-1.185 2.401-2.396 4.809-2.435l.115-.002zm3.636 3.396l.007-.002-.007.002z" fill="#66452E"/></svg>
